X: 27
T: Rolling Waves, The
Z: Nadeau
S: https://thesession.org/tunes/88#setting53086
R: jig
M: 6/8
L: 1/8
K: Dmaj
|:"D"FEF DED|D2d "F#m"cAG|"G"FEF DED|"A"A2F GFE|
"D"FEF DED|D2d "F#m"cAG|"G"FEF GFG|"A"A2F GFE:|
"Bm "D2d cAd|cAd cAG|"A"F2d cAG|F2F GFE|
"Bm"D2d cAd|fed cAG|"A "FEF GFG|A2F GFE|
"Bm "D2d cAd|cAd cAG|"A"F2d cAG|F2F GFE|
"Em"D2d cAd|"F#m"fed cAG|"G "FEF GFG|"A"A2F GFE||

